libs/ui/packages/crypto-icons/src/svg/BTM.svg

<svg width="24" height="24" viewBox="0 0 24 24" fill="none">
<path d="M8.12025 11.532L6.8115 14.3055L7.4205 16.5795L8.97 16.9935L10.893 18.9188L10.314 19.5L5.73 18.27L4.5 13.686L5.4225 12.765L9.429 8.75775L8.12025 11.532L6.8115 14.3055L10.893 10.224L9.429 8.75775L8.12025 11.532ZM10.224 13.107L14.3055 17.1885L16.5795 16.5795L16.995 15.03L18.9188 13.107L19.5 13.686L18.2715 18.2715L13.686 19.5L8.75925 14.571L10.224 13.107ZM13.776 10.893L9.6945 6.8115L7.419 7.4205L7.005 8.96775L5.08125 10.893L4.5 10.314L5.73 5.7285L10.314 4.5L11.235 5.4225L15.24 9.4275L13.776 10.893ZM15.03 7.005L13.107 5.08125L13.686 4.5L18.2715 5.7285L19.5 10.314L14.571 15.2407L13.107 13.776L17.19 9.693L16.5795 7.419L15.03 7.005Z" fill="#504C4C"/>
</svg>

<svg width="24" height="24" viewBox="0 0 24 24" fill="none"><path fill="#504c4c" d="m8.12 11.532-1.308 2.774.608 2.274 1.55.414 1.923 1.925-.579.581-4.584-1.23-1.23-4.584.923-.921 4.006-4.007zl-1.308 2.774 4.081-4.082-1.464-1.466zm2.104 1.575 4.082 4.082 2.274-.61.415-1.549 1.924-1.923.581.579-1.229 4.586-4.585 1.228-4.927-4.929zm3.552-2.214L9.695 6.811l-2.276.61-.414 1.547-1.924 1.925-.581-.579 1.23-4.585L10.314 4.5l.921.923 4.005 4.005zm1.254-3.888-1.923-1.924.579-.581 4.586 1.229 1.228 4.585-4.929 4.927-1.464-1.465 4.083-4.083-.61-2.274z"/></svg>
